X: 13
T:Bourre - Milkshake
C:MCTB 2/31
M:3/8
L:1/16
K:C
f3edc|A2B2c2|d2dcde|fedcBc|\
f3edc|A2B2c2|d2dcde|d6:|
|:e3ee2|f2e2d2|c2defe|dcBcBc|\
e3ee2|f2e2d2|c2defe|d6:|
